X: 7515
T: Cobbler's, The
R: polka
M: 2/4
K: Bminor
dB bB|de f>e|dB bB|c/B/A/c/ e>c|
dB bB|de f>e|de f/e/d|B2:|
f2 ba|fe f>e|dB bB|c/B/A/c/ e2|
f2 ba|fe f>e|de f/e/d|B2:|
GE BE|GA B>A|GE BE|F/E/D/F/ A>F|
GE BE|GA B>A|GA B/A/G|E2:|
B2 ed|BA B>A|GE BE|F/E/D/F/ A2|
B2 ed|BA B>A|GA B/A/G|E2:|
|:fB bB|de f>e|dB bB|c/B/A/c/ e/g/f/e/|
fB bB|de f2|ff f/e/d|B2 B2:|
|:ff/f/ ba|fe fe|dB bB|c/B/A/c/ e/g/f/e/|
ff/f/ ba|fe fe|ff f/e/d|B2 B2:|

